X: 17462
T: Highlandman, The
R: strathspey
M: 4/4
K: Edorian
|:E2 (3EEE (3FGA B>G|(3EFG B>G A>DF<D|
E2 (3EEE (3FGA B>c|d>cd>B A>DF<D:|
|:G>d (3ddd e>cd>B|G>Bd>B A>FD<F|
[1 G>d (3ddd (3edc d>f|e>cd>B A>FD<A:|
[2 G>dc>d e>cd<G|d>cd>B A>DF<D||

